X: 8426
T: Craan, The
R: slide
M: 12/8
K: Dmajor
c|:d2 A ABA F2 A ABA|d2 A ABA c2 d e2 c|
d2 A ABA F2 A ABA|1 cAc edc d3 d2 c:|2 cAc edc d3 d2 A||
|:d2 f fef a2 f fef|d2 f a2 f g2 e efe|
d2 f fef a2 f fef|1 g2 e c2 e d3 d2 A:|2 g2 e cde d3 d3||

